X:1
T:Bravade
A:Nederland
M:4/4
C:van Eijck
K:Dm
A2|"Dm"d2f2e2d2|"A"^c2A2A3e| a3ea3g|"Dm"f2d2d2A2| \
|d2f2e2d2|"A"^c2A2A2A2|"G"=B^cd2 "A"d2^c2| "Dm"d6 ::
d2 |"A"^cde2 cde2| a2 e2 e3 d| ^cde2 cde2| a2 e2 e2 fg| \
"F"a3f "C"g3e| "Dm"f2d2 "A"e2fg| "Dm"a2gf "A"e3d| "Dm"d6 :|
